images/client-logos/red-hat.svg

<svg fill="none" height="65" viewBox="0 0 227 65" width="227" xmlns="http://www.w3.org/2000/svg"><path d="m.430267 33.889c0-5.8419-.121746-10.1409-.3589779-14.0254h9.5546909l.41352 8.2883h.3064c2.1482-6.143 7.2422-9.2776 11.9506-9.2776 1.0757 0 1.7034.0427 2.5881.2372v10.3908c-1.0956-.2145-2.2109-.3184-3.3262-.3099-5.2586 0-8.9061 3.3462-9.8913 8.346-.1993 1.1005-.2949 2.217-.2883 3.3354v22.6275h-11.040299zm37.770633 10.7667c.2965 7.8993 6.4135 11.3629 13.4843 11.3629 5.0709 0 8.7002-.7926 12.0363-2.0234l1.6409 7.6002c-3.7397 1.5769-8.9193 2.767-15.2587 2.767-14.1631 0-22.4662-8.7518-22.4662-22.1255 0-12.0487 7.3047-23.4417 21.3426-23.4417 14.1895 0 18.8089 11.6686 18.8089 21.2261 0 2.0491-.1746 3.6963-.397 4.7113zm19.1977-7.69c.0494-4.0448-1.7117-10.6344-9.1021-10.6344-6.7941 0-9.6195 6.1644-10.1104 10.6344zm139.3284 16.3159c0 3.4059.133 6.9271.626 10.2197h-3.923l-.621-6.1642h-.206c-2.087 3.3183-6.883 7.1494-13.722 7.1494-8.655 0-12.683-6.0982-12.683-11.831 0-9.9272 8.764-15.912 26.27-15.7367v-1.1432c0-4.252-.83-12.7497-11.008-12.6792-3.765 0-7.687 1.0064-10.801 3.2051l-1.358-3.096c3.936-2.6625 8.732-3.718 12.625-3.718 12.418 0 14.799 9.3181 14.799 17.0061v16.788zm-4.259-12.7775c-9.369-.2713-21.746 1.1518-21.746 11.4847 0 6.1816 4.08 8.9593 8.563 8.9593 7.173 0 11.247-4.4402 12.728-8.6258.321-.9231.455-1.844.455-2.5791zm21.799-29.5141v9.4825h12.265v3.455h-12.265v27.9653c0 5.472 1.703 8.8972 6.323 8.8972 2.216 0 3.784-.2885 4.886-.671l.517 3.297c-1.393.5832-3.346 1.0298-5.937 1.0298-3.148 0-5.745-.985-7.425-3.0469-1.949-2.2671-2.623-5.8717-2.623-10.2669v-27.2045h-7.255v-3.455h7.255v-7.9122zm-70.086 8.4975c-3.062-.0038-6.066.8502-8.669 2.4657-2.494 1.4862-4.527 3.6338-5.876 6.2051h-.18v-21.29008l-4.255-1.1603v57.79338h4.255v-26.3112c0-1.7479.134-2.9593.585-4.2392 1.835-5.3504 6.877-9.7454 12.977-9.7454 8.806 0 11.857 7.0703 11.857 14.8158v25.4822h4.257v-25.9501c.001-16.0297-10.873-18.0659-14.951-18.0659zm-28.85-16.45256-11.03-2.9871495v24.5143095h-.179c-1.952-3.2221-6.2555-5.6878-12.2325-5.6878-10.4909 0-19.6342 8.6835-19.5634 23.3071 0 13.4163 8.2537 22.3051 18.6738 22.3051 6.2982 0 11.5651-3.0043 14.1701-7.8909h.201l.496 6.9057h9.828c-.245-4.0756-.366-8.158-.364-12.241zm-11.03 41.54166c0 1.1603-.082 2.2414-.332 3.2223-1.114 4.7776-5.0169 7.8543-9.5276 7.8543-6.9489 0-10.9258-5.8588-10.9258-13.8756 0-8.096 3.944-14.3608 11.051-14.3608 4.9622 0 8.5094 3.5022 9.4894 7.7455.188.8975.245 2 .245 2.8804z" fill="#e3e8f0"/></svg>

<svg width="227" height="65" viewBox="0 0 227 65" fill="none" xmlns="http://www.w3.org/2000/svg">
<path d="M0.430267 33.889C0.430267 28.0471 0.308521 23.7481 0.0712891 19.8636H9.62598L10.0395 28.1519H10.3459C12.4941 22.0089 17.5881 18.8743 22.2965 18.8743C23.3722 18.8743 23.9999 18.917 24.8846 19.1115V29.5023C23.789 29.2878 22.6737 29.1839 21.5584 29.1924C16.2998 29.1924 12.6523 32.5386 11.6671 37.5384C11.4678 38.6389 11.3722 39.7554 11.3788 40.8738V63.5013H0.338501L0.430267 33.889ZM38.2009 44.6557C38.4974 52.555 44.6144 56.0186 51.6852 56.0186C56.7561 56.0186 60.3854 55.226 63.7215 53.9952L65.3624 61.5954C61.6227 63.1723 56.4431 64.3624 50.1037 64.3624C35.9406 64.3624 27.6375 55.6106 27.6375 42.2369C27.6375 30.1882 34.9422 18.7952 48.9801 18.7952C63.1696 18.7952 67.789 30.4638 67.789 40.0213C67.789 42.0704 67.6144 43.7176 67.392 44.7326L38.2009 44.6557ZM57.3986 36.9657C57.448 32.9209 55.6869 26.3313 48.2965 26.3313C41.5024 26.3313 38.677 32.4957 38.1861 36.9657H57.3986ZM196.727 53.2816C196.727 56.6875 196.86 60.2087 197.353 63.5013H193.43L192.809 57.3371H192.603C190.516 60.6554 185.72 64.4865 178.881 64.4865C170.226 64.4865 166.198 58.3883 166.198 52.6555C166.198 42.7283 174.962 36.7435 192.468 36.9188V35.7756C192.468 31.5236 191.638 23.0259 181.46 23.0964C177.695 23.0964 173.773 24.1028 170.659 26.3015L169.301 23.2055C173.237 20.543 178.033 19.4875 181.926 19.4875C194.344 19.4875 196.725 28.8056 196.725 36.4936V53.2816H196.727ZM192.468 40.5041C183.099 40.2328 170.722 41.6559 170.722 51.9888C170.722 58.1704 174.802 60.9481 179.285 60.9481C186.458 60.9481 190.532 56.5079 192.013 52.3223C192.334 51.3992 192.468 50.4783 192.468 49.7432V40.5041ZM214.267 10.99V20.4725H226.532V23.9275H214.267V51.8928C214.267 57.3648 215.97 60.79 220.59 60.79C222.806 60.79 224.374 60.5015 225.476 60.119L225.993 63.416C224.6 63.9992 222.647 64.4458 220.056 64.4458C216.908 64.4458 214.311 63.4608 212.631 61.3989C210.682 59.1318 210.008 55.5272 210.008 51.132V23.9275H202.753V20.4725H210.008V12.5603L214.267 10.99ZM144.181 19.4875C141.119 19.4837 138.115 20.3377 135.512 21.9532C133.018 23.4394 130.985 25.587 129.636 28.1583H129.456V6.86822L125.201 5.70792V63.5013H129.456V37.1901C129.456 35.4422 129.59 34.2308 130.041 32.9509C131.876 27.6005 136.918 23.2055 143.018 23.2055C151.824 23.2055 154.875 30.2758 154.875 38.0213V63.5035H159.132V37.5534C159.133 21.5237 148.259 19.4875 144.181 19.4875ZM115.331 3.03494L104.301 0.0477905V24.5621H104.122C102.17 21.34 97.8665 18.8743 91.8895 18.8743C81.3986 18.8743 72.2553 27.5578 72.3261 42.1814C72.3261 55.5977 80.5798 64.4865 90.9999 64.4865C97.2981 64.4865 102.565 61.4822 105.17 56.5956H105.371L105.867 63.5013H115.695C115.45 59.4257 115.329 55.3433 115.331 51.2603V3.03494ZM104.301 44.5766C104.301 45.7369 104.219 46.818 103.969 47.7989C102.855 52.5765 98.9521 55.6532 94.4414 55.6532C87.4925 55.6532 83.5156 49.7944 83.5156 41.7776C83.5156 33.6816 87.4596 27.4168 94.5666 27.4168C99.5288 27.4168 103.076 30.919 104.056 35.1623C104.244 36.0598 104.301 37.1623 104.301 38.0427V44.5766Z" fill="#E3E8F0"/>
</svg>
